X: 1
T: For All The Saints
C: Words: William W. How, 1864.
C: Music: 'Sine Nomine' Ralph Vaughan Williams, 1906. Setting: "The English Hymnal", 1906.
C: Arr. for SSAATTBB a cappella with lever harp by Claude Sonnet 4.6, 2026.
C: copyright: public domain.
M: 4/4
L: 1/4
Q: 1/4=120
%%staves {(V1 V2) (V3 V4) (V5 V6) (V7 V8)}
V:1 name="Soprano I"  clef=treble
V:2 name="Soprano II" clef=treble
V:3 name="Alto I"     clef=treble
V:4 name="Alto II"    clef=treble
V:5 name="Tenor I"    clef=treble middle=B3 transpose=-12
V:6 name="Tenor II"   clef=treble middle=B3 transpose=-12
V:7 name="Baritone"   clef=bass
V:8 name="Bass I"     clef=bass
K: G
%%MIDI program 52
%
% === PHRASE 1 (pickup + bars 1-4) — TTBB alone, antiphonal opening ===
%
[V:1] z d B A | G3 D | E G A D | B3 B |
[V:2] z B G F | E3 B, | C E F A | G3 G |
[V:3] z G E D | C3 G, | G, C D F | E3 E |
[V:4] z G D D | B,3 G, | G, B, C D | D3 D |
[V:5] z D B, A, | G,3 D | G, B, C D | G,3 G, |
[V:6] z G, G, F, | E,3 B,, | E, G, A, D | E,3 E, |
[V:7] z G, E, D, | C,3 G,, | C, E, F, A, | D,3 D, |
[V:8] z G,, B,, C, | G,,3 G,, | C, G,, C, D, | G,,3 G,, |
%
% === PHRASE 2 (bars 5-8) — SSAA enter, 6-voice (SSAA + B voices sustain) ===
%
[V:1] A2 A G | F2 F2 | G A F E | D3 D |
[V:2] F2 F E | D2 D2 | E F D C | B,3 B, |
[V:3] D2 D C | A,2 A,2 | C D A, A, | F,3 F, |
[V:4] D2 D B, | D2 C2 | B, C A, A, | A,3 A, |
[V:5] D2 D E | A,2 A,2 | B, D A, G, | F,3 F, |
[V:6] A,2 A, G, | F,2 F,2 | G, A, F, E, | D,3 D, |
[V:7] F,2 F, E, | D,2 D,2 | E, F, D, C, | A,,3 A,, |
[V:8] D,2 D, D, | D,2 D,2 | G,, D, D, D, | D,,3 D,, |
%
% === PHRASE 3 (bars 9-12) — full 8-voice homophony, building to climax ===
%
[V:1] G2 G G | d3 d | c d c B | A2
[V:2] B,2 E E | B,2 G2 | E G G F | F2
[V:3] G,2 C C | G,2 G2 | G A G E | D2
[V:4] G,2 C B, | G,2 D2 | E E D D | D2
[V:5] D2 E G | G,2 D2 | C D E D | A,2
[V:6] G,2 G, G, | G,,2 G,2 | G, A, G, G, | F,2
[V:7] G,,2 C, E, | G,,2 G,2 | C, D, E, D, | D,2
[V:8] G,,2 G,, G,, | G,,2 G,,2 | C, A,, G,, G,, | D,2
%
% === PHRASE 4 / REFRAIN (bars 13-17) — full 8-voice, climax at bar 14-15, stretto at cadence ===
%
[V:1] (d2 | e) d d2 | G3 (A | c) B A2 | G4 |]
[V:2] (B2 | c) B B2 | E3 (F | G) G F2 | G4 |]
[V:3] (G2 | G) G G2 | C3 (D | E) E D2 | E4 |]
[V:4] (G2 | G) G G2 | G,3 (A, | C) D D2 | D4 |]
[V:5] (D2 | E) D D2 | B,3 (B, | C) G, A,2 | B,4 |]
[V:6] (G,2 | G,) G, G,2 | E,3 (F, | G,) G, F,2 | G,4 |]
[V:7] (G,2 | C,) G, G,2 | G,,3 (A,, | C,) D, D,2 | D,4 |]
[V:8] (G,,2 | C,,) G,, G,,2 | G,,,3 (A,,, | C,,) G,, D,,2 | G,,4 |]
